X:1
T:Johnny Jump-Up
M:3/4
L:1/4
K:F
 D/2| D A A| A G A| F D D| D2 D/2D/2| C D E| G A G/2G/2| G E D| C2 d/2d/2|\
 d c A| A G A| A =B c| d2 d/2d/2| d c d| A G A| F D D| D2 z/2||
